icons/svg/road_shields/h_us_bypass_icon_shield.svg

<?xml version="1.0" encoding="UTF-8" standalone="no"?>
<!-- Generator: Adobe Illustrator 16.0.4, SVG Export Plug-In . SVG Version: 6.00 Build 0)  -->

<svg
   xmlns:dc="http://purl.org/dc/elements/1.1/"
   xmlns:cc="http://creativecommons.org/ns#"
   xmlns:rdf="http://www.w3.org/1999/02/22-rdf-syntax-ns#"
   xmlns:svg="http://www.w3.org/2000/svg"
   xmlns="http://www.w3.org/2000/svg"
   xmlns:sodipodi="http://sodipodi.sourceforge.net/DTD/sodipodi-0.dtd"
   xmlns:inkscape="http://www.inkscape.org/namespaces/inkscape"
   version="1.1"
   id="Слой_1"
   x="0px"
   y="0px"
   width="25"
   height="41"
   viewBox="0 0 25 41"
   enable-background="new 0 0 17.143 17.17"
   xml:space="preserve"
   inkscape:version="0.91 r"
   sodipodi:docname="h_us_bypass_icon_shield.svg"><metadata
     id="metadata13"><rdf:RDF><cc:Work
         rdf:about=""><dc:format>image/svg+xml</dc:format><dc:type
           rdf:resource="http://purl.org/dc/dcmitype/StillImage" /><dc:title></dc:title></cc:Work></rdf:RDF></metadata><defs
     id="defs11" /><sodipodi:namedview
     pagecolor="#ffffff"
     bordercolor="#666666"
     borderopacity="1"
     objecttolerance="10"
     gridtolerance="10"
     guidetolerance="10"
     inkscape:pageopacity="0"
     inkscape:pageshadow="2"
     inkscape:window-width="1920"
     inkscape:window-height="1004"
     id="namedview9"
     showgrid="false"
     inkscape:zoom="19.43823"
     inkscape:cx="13.143065"
     inkscape:cy="35.359572"
     inkscape:window-x="1680"
     inkscape:window-y="0"
     inkscape:window-maximized="1"
     inkscape:current-layer="Слой_1"
     showguides="false" /><rect
     style="color:#000000;clip-rule:evenodd;display:inline;overflow:visible;visibility:visible;opacity:1;isolation:auto;mix-blend-mode:normal;color-interpolation:sRGB;color-interpolation-filters:linearRGB;solid-color:#000000;solid-opacity:1;fill:#ffffff;fill-opacity:1;fill-rule:evenodd;stroke:#515151;stroke-width:1.08273661;stroke-linecap:butt;stroke-linejoin:miter;stroke-miterlimit:4;stroke-dasharray:none;stroke-dashoffset:0;stroke-opacity:1;marker:none;color-rendering:auto;image-rendering:auto;shape-rendering:auto;text-rendering:auto;enable-background:accumulate"
     id="rect4135"
     width="19.803215"
     height="7.0026784"
     x="2.598392"
     y="0.56049848"
     ry="0" /><path
     inkscape:connector-curvature="0"
     id="path4146"
     style="font-style:normal;font-variant:normal;font-weight:bold;font-stretch:normal;font-size:medium;line-height:125%;font-family:Sans;-inkscape-font-specification:'Sans Bold';letter-spacing:0px;word-spacing:0px;fill:#515151;fill-opacity:1;stroke:none;stroke-width:1px;stroke-linecap:butt;stroke-linejoin:miter;stroke-opacity:1"
     d="m 6.9852514,3.5765857 q 0.2943011,0 0.4463025,-0.110273 0.1520021,-0.110273 0.1520021,-0.325305 0,-0.212275 -0.1520021,-0.322548 -0.1520023,-0.113029 -0.4463025,-0.113029 l -0.6888586,0 0,0.871155 0.6888586,0 z m 0.042043,1.800203 q 0.3751531,0 0.5627295,-0.135084 0.1908106,-0.135084 0.1908106,-0.408009 0,-0.267412 -0.1875765,-0.399739 -0.1875767,-0.135084 -0.5659638,-0.135084 l -0.7309014,0 0,1.077916 0.7309014,0 z m 1.1577997,-1.480412 q 0.4010255,0.09925 0.6209427,0.366657 0.2199172,0.267412 0.2199172,0.656123 0,0.595473 -0.4721753,0.887696 -0.4721752,0.292224 -1.4359302,0.292224 l -2.0665754,0 0,-4.115933 1.8692967,0 q 1.0057981,0 1.4553347,0.259141 0.4527709,0.259141 0.4527709,0.829803 0,0.300493 -0.164938,0.512768 -0.1649379,0.209519 -0.4786433,0.311521 z" /><path
     inkscape:connector-curvature="0"
     id="path4148"
     style="font-style:normal;font-variant:normal;font-weight:bold;font-stretch:normal;font-size:medium;line-height:125%;font-family:Sans;-inkscape-font-specification:'Sans Bold';letter-spacing:0px;word-spacing:0px;fill:#515151;fill-opacity:1;stroke:none;stroke-width:1px;stroke-linecap:butt;stroke-linejoin:miter;stroke-opacity:1"
     d="m 10.037249,1.9831437 1.361547,0 1.099585,1.466628 1.099587,-1.466628 1.364781,0 -1.84019,2.381892 0,1.734041 -1.24512,0 0,-1.734041 -1.84019,-2.381892 z" /><path
     inkscape:connector-curvature="0"
     id="path4150"
     style="font-style:normal;font-variant:normal;font-weight:bold;font-stretch:normal;font-size:medium;line-height:125%;font-family:Sans;-inkscape-font-specification:'Sans Bold';letter-spacing:0px;word-spacing:0px;fill:#515151;fill-opacity:1;stroke:none;stroke-width:1px;stroke-linecap:butt;stroke-linejoin:miter;stroke-opacity:1"
     d="m 15.974048,1.9831437 2.066575,0 q 0.921711,0 1.41329,0.350116 0.494814,0.347359 0.494814,0.992455 0,0.647853 -0.494814,0.997969 -0.491579,0.347359 -1.41329,0.347359 l -0.821456,0 0,1.428034 -1.245119,0 0,-4.115933 z m 1.245119,0.769152 0,1.149595 0.688859,0 q 0.362215,0 0.559495,-0.148869 0.197278,-0.151625 0.197278,-0.427307 0,-0.275682 -0.197278,-0.42455 -0.19728,-0.148869 -0.559495,-0.148869 l -0.688859,0 z" /></svg>

<svg width="25" height="41" viewBox="0 0 25 41" fill="none" xmlns="http://www.w3.org/2000/svg">
<path d="M22.4016 0.560486H2.59839V7.56316H22.4016V0.560486Z" fill="white" stroke="#515151" stroke-width="1.08274"/>
<path d="M6.98525 3.5766C7.18145 3.5766 7.33022 3.53984 7.43155 3.46632C7.53289 3.39281 7.58356 3.28437 7.58356 3.14102C7.58356 2.9995 7.53289 2.89199 7.43155 2.81847C7.33022 2.74312 7.18145 2.70544 6.98525 2.70544H6.29639V3.5766H6.98525ZM7.0273 5.3768C7.2774 5.3768 7.46497 5.33177 7.59002 5.24171C7.71723 5.15166 7.78084 5.01566 7.78084 4.83371C7.78084 4.65543 7.71831 4.52219 7.59326 4.43397C7.46821 4.34391 7.27955 4.29888 7.02729 4.29888H6.29639V5.3768H7.02729H7.0273ZM8.18509 3.89639C8.45244 3.96255 8.65943 4.08477 8.80604 4.26304C8.95265 4.44132 9.02595 4.66003 9.02595 4.91917C9.02595 5.31615 8.86856 5.61205 8.55378 5.80686C8.239 6.00168 7.76035 6.09909 7.11785 6.09909H5.05127V1.98315H6.92057C7.5911 1.98315 8.07621 2.06953 8.3759 2.2423C8.67775 2.41506 8.82868 2.69166 8.82868 3.0721C8.82868 3.27243 8.7737 3.44335 8.66374 3.58487C8.55378 3.72455 8.39423 3.82839 8.18509 3.89639V3.89639Z" fill="#515151"/>
<path d="M10.0372 1.98315H11.3988L12.4984 3.44978L13.598 1.98315H14.9627L13.1226 4.36505V6.09909H11.8774V4.36505L10.0372 1.98315V1.98315Z" fill="#515151"/>
<path d="M15.974 1.98315H18.0406C18.6551 1.98315 19.1262 2.09986 19.4539 2.33327C19.7838 2.56484 19.9487 2.89566 19.9487 3.32573C19.9487 3.75763 19.7838 4.09028 19.4539 4.32369C19.1262 4.55527 18.6551 4.67105 18.0406 4.67105H17.2192V6.09909H15.974V1.98315V1.98315ZM17.2192 2.75231V3.9019H17.908C18.1495 3.9019 18.336 3.85228 18.4675 3.75303C18.599 3.65195 18.6648 3.50951 18.6648 3.32573C18.6648 3.14194 18.599 3.00042 18.4675 2.90118C18.336 2.80193 18.1495 2.75231 17.908 2.75231H17.2192V2.75231Z" fill="#515151"/>
</svg>
